X:1
T:Wonderful Night!
T:Composer Unknown, 1866
T:Wonderful Night!
T:Public Domain
T:Public Domain
C:Composer Unknown, 1866
Z:Public Domain
%%score ( 1 2 ) ( 3 4 )
L:1/8
M:6/8
K:G
V:1 treble 
V:2 treble 
V:3 bass 
V:4 bass 
V:1
 [DB]3 ([CA]>[DB])[CA] | [B,G]3 z3 | [Ac]3 (B>c)[Gd] | [FA]3 z3 | [FA][FA][FA] [GB][GB][GB] | %5
w: 1.~Won- der- * ful|night!|Won- der- * ful|An-|gels and shin- ing im- mor-|
w: 2.~Won- der- * ful|night!|Won- der- * ful|Dreamed|of by pro- phets and sag-|
w: 3.~Won- der- * ful|night!|Won- der- * ful|Down|o’er the stars to re- store|
w: 4.~Won- der- * ful|night!|Won- der- * ful|Thee|did the day- star a- dorn-|
w: 5.~Won- der- * ful|night!|Won- der- * ful|Sweet|be thy rest to the wear-|
w: 6.~Won- der- * ful|night!|Won- der- * ful|Let|me, as long as life ling-|
 [Ac]3 [FA]2 z | [GB][GB][GB] [Ac][Ac][Ac] | [Bd]3 [GB]2 z | [Gd][Gd][Fc] [GB][Gc][Gd] | [Ge]3 z3 | %10
w: tals, Throng-|ing thine e- bo- ny por-|tals, Fling|out their ban- ners of light,|Won-|
w: es! Man-|hood re- deemed for all ag-|es, Wel-|comes thy hal- low- ing might,|Won-|
w: us, Lead-|ing His flame- wing- éd chor-|us, Comes|the E- ter- nal to sight—|Won-|
w: ing, Christ-|en with dew of the morn-|ing; Eve|of a day ev- er bright—|Won-|
w: y, Mak-|ing the dull heart and drear-|y Laugh|in a dream of de- light;|Won-|
w: ers, Sing|with the cher- u- bim sing-|ers, “Glo-|ry to God in the height!”|Won-|
 [Bd]>[GB][DG] [CA]>[DB][CA] | [B,G]3 z3 |] %12
w: der- ful, won- der- ful night!||
w: der- ful, wond- er- ful night!||
w: der- ful, wond- er- ful night!||
w: der- ful, wond- er- ful night!||
w: der- ful, wond- er- ful night!||
w: der- ful, wond- er- ful night!||
V:2
 x6 | x6 | x3 G2 x | x6 | x6 | x6 | x6 | x6 | x6 | x6 | x6 | x6 |] %12
w: ||night!||||||||||
w: ||night!||||||||||
w: ||night!||||||||||
w: ||night!||||||||||
w: ||night!||||||||||
w: ||night!||||||||||
V:3
 G,3 D,2 D, | G,,3 z3 | D,2 F, (G,>A,)(B,/C/) | [D,D]3 z3 | D,D,D, D,D,D, | D,3 D,2 z | %6
 G,G,G, G,G,G, | G,3 G,2 z | [B,,B,][B,,B,][A,,A,] [G,,G,][A,,A,][B,,B,] | [C,C]3 z3 | %10
 G,>D,B,, D,>D,D, | G,,3 z3 |] %12
V:4
 x6 | x6 | D,3 G,,2 B,, | x6 | x6 | x6 | x6 | x6 | x6 | x6 | x6 | x6 |] %12

